humanity-icon-theme/Humanity/places/22/user-desktop.svg

<?xml version="1.0" encoding="UTF-8" standalone="no"?>
<!-- Created with Inkscape (http://www.inkscape.org/) -->
<svg
   xmlns:svg="http://www.w3.org/2000/svg"
   xmlns="http://www.w3.org/2000/svg"
   xmlns:xlink="http://www.w3.org/1999/xlink"
   version="1.0"
   width="22"
   height="22"
   id="svg2639">
  <defs
     id="defs2641">
    <linearGradient
       id="linearGradient8265-821-176-38-919-66-249">
      <stop
         id="stop2687"
         style="stop-color:#ffffff;stop-opacity:1"
         offset="0" />
      <stop
         id="stop2689"
         style="stop-color:#ffffff;stop-opacity:0"
         offset="1" />
    </linearGradient>
    <linearGradient
       id="linearGradient2238">
      <stop
         id="stop2240"
         style="stop-color:#ffffff;stop-opacity:1"
         offset="0" />
      <stop
         id="stop2242"
         style="stop-color:#ffffff;stop-opacity:0"
         offset="1" />
    </linearGradient>
    <linearGradient
       id="linearGradient3282">
      <stop
         id="stop3284"
         style="stop-color:#000000;stop-opacity:1"
         offset="0" />
      <stop
         id="stop3286"
         style="stop-color:#000000;stop-opacity:0"
         offset="1" />
    </linearGradient>
    <linearGradient
       x1="33.579403"
       y1="5.7086449"
       x2="33.579403"
       y2="16.323294"
       id="linearGradient2419"
       xlink:href="#linearGradient2522"
       gradientUnits="userSpaceOnUse"
       gradientTransform="matrix(0.3802462,0,0,0.329847,-1.2543548,0.3664358)" />
    <linearGradient
       x1="16.91585"
       y1="7.0006418"
       x2="16.91585"
       y2="14"
       id="linearGradient2421"
       xlink:href="#linearGradient2515"
       gradientUnits="userSpaceOnUse"
       gradientTransform="matrix(0.4666493,0,0,0.5000537,-0.1999749,-1.2507234)" />
    <linearGradient
       x1="24.682861"
       y1="9.2416716"
       x2="24.682861"
       y2="13.523027"
       id="linearGradient2424"
       xlink:href="#linearGradient3282"
       gradientUnits="userSpaceOnUse"
       gradientTransform="matrix(0.4346869,0,0,0.2340043,0.5704707,3.8374098)" />
    <linearGradient
       x1="22.762604"
       y1="-4.8771"
       x2="22.762604"
       y2="43.84375"
       id="linearGradient2427"
       xlink:href="#linearGradient2238"
       gradientUnits="userSpaceOnUse"
       gradientTransform="matrix(0.4218075,0,0,0.3842123,0.8761112,2.165418)" />
    <linearGradient
       x1="16.626165"
       y1="15.298182"
       x2="20.054544"
       y2="24.627615"
       id="linearGradient2430"
       xlink:href="#linearGradient8265-821-176-38-919-66-249"
       gradientUnits="userSpaceOnUse"
       gradientTransform="matrix(0.4353741,0,0,0.4823445,0.5510204,0.121006)" />
    <radialGradient
       cx="26.616697"
       cy="-2.0644982"
       r="23"
       fx="26.616697"
       fy="-2.0644982"
       id="radialGradient2433"
       xlink:href="#linearGradient3242-593-605-251-305"
       gradientUnits="userSpaceOnUse"
       gradientTransform="matrix(0,-0.4895932,0.6517645,0,16.583449,25.946788)" />
    <linearGradient
       x1="10.014208"
       y1="44.960102"
       x2="10.014208"
       y2="2.8764627"
       id="linearGradient2435"
       xlink:href="#linearGradient3332-412-419-652-471"
       gradientUnits="userSpaceOnUse"
       gradientTransform="matrix(0.4467866,0,0,0.41508,0.2771291,1.0213291)" />
    <linearGradient
       id="linearGradient2522">
      <stop
         id="stop2524"
         style="stop-color:#fdfdf8;stop-opacity:1"
         offset="0" />
      <stop
         id="stop2526"
         style="stop-color:#d6d3b4;stop-opacity:1"
         offset="1" />
    </linearGradient>
    <linearGradient
       id="linearGradient2515">
      <stop
         id="stop2517"
         style="stop-color:#aeae94;stop-opacity:1"
         offset="0" />
      <stop
         id="stop2519"
         style="stop-color:#626337;stop-opacity:1"
         offset="1" />
    </linearGradient>
    <linearGradient
       id="linearGradient3242-593-605-251-305">
      <stop
         id="stop2749"
         style="stop-color:#d78ec1;stop-opacity:1"
         offset="0" />
      <stop
         id="stop2751"
         style="stop-color:#c564be;stop-opacity:1"
         offset="0.26238" />
      <stop
         id="stop2753"
         style="stop-color:#9d3ea4;stop-opacity:1"
         offset="0.66093999" />
      <stop
         id="stop2755"
         style="stop-color:#5e2c73;stop-opacity:1"
         offset="1" />
    </linearGradient>
    <linearGradient
       id="linearGradient3332-412-419-652-471">
      <stop
         id="stop2759"
         style="stop-color:#650d5c;stop-opacity:1"
         offset="0" />
      <stop
         id="stop2761"
         style="stop-color:#ad53a5;stop-opacity:1"
         offset="1" />
    </linearGradient>
    <radialGradient
       cx="26.616697"
       cy="-2.0644982"
       r="23"
       fx="26.616697"
       fy="-2.0644982"
       id="radialGradient2566"
       xlink:href="#linearGradient3242-593-605-251-305"
       gradientUnits="userSpaceOnUse"
       gradientTransform="matrix(-1.8187668e-8,-1.0656573,1.3967139,0,-14.706694,41.021082)" />
    <linearGradient
       x1="10.014208"
       y1="44.960102"
       x2="10.014208"
       y2="2.8764627"
       id="linearGradient2568"
       xlink:href="#linearGradient3332-412-419-652-471"
       gradientUnits="userSpaceOnUse"
       gradientTransform="matrix(0.9574517,0,0,0.9034707,-49.650702,-13.232121)" />
    <radialGradient
       cx="26.616697"
       cy="-2.0644982"
       r="23"
       fx="26.616697"
       fy="-2.0644982"
       id="radialGradient3360"
       xlink:href="#linearGradient3242-593-605-251-305"
       gradientUnits="userSpaceOnUse"
       gradientTransform="matrix(0,-0.4895957,0.6517659,0,16.583486,25.958483)" />
    <linearGradient
       x1="10.014208"
       y1="44.960102"
       x2="10.014208"
       y2="2.8764627"
       id="linearGradient3362"
       xlink:href="#linearGradient3332-412-419-652-471"
       gradientUnits="userSpaceOnUse"
       gradientTransform="matrix(0.4467876,0,0,0.4150822,0.2771303,1.0328959)" />
  </defs>
  <rect
     width="20.997826"
     height="16.998301"
     rx="1.4532951"
     ry="1.4241893"
     x="0.50108719"
     y="2.5008497"
     id="rect1316"
     style="fill:url(#radialGradient2433);fill-opacity:1;fill-rule:evenodd;stroke:url(#linearGradient2435);stroke-width:1.00213289;stroke-linecap:round;stroke-linejoin:round;marker:none;marker-start:none;marker-mid:none;marker-end:none;stroke-miterlimit:4;stroke-dasharray:none;stroke-dashoffset:0;stroke-opacity:1;visibility:visible;display:inline;overflow:visible;enable-background:accumulate" />
  <path
     d="M 1.9523809,3 C 1.4263283,3 1,3.472323 1,4.055128 L 1,11.772639 C 1.00121,11.837569 1.026905,11.898961 1.070857,11.941926 C 1.114809,11.984896 1.1729953,12.005496 1.2312923,11.998736 L 20.823128,8.562034 C 20.923908,8.544425 20.99859,8.448957 21,8.335934 L 21,4.055128 C 21,3.472323 20.57367,3 20.047618,3 L 1.9523809,3 z"
     id="path3278"
     style="opacity:0.2;fill:url(#linearGradient2430);fill-opacity:1;fill-rule:evenodd;stroke:none" />
  <rect
     width="18.997868"
     height="14.997867"
     rx="0.55883807"
     ry="0.54499364"
     x="1.5010666"
     y="3.5010633"
     id="rect2232"
     style="opacity:0.4;fill:none;stroke:url(#linearGradient2427);stroke-width:1.00213313;stroke-linecap:round;stroke-linejoin:round;stroke-miterlimit:4;stroke-dasharray:none;stroke-dashoffset:0;stroke-opacity:1" />
  <rect
     width="20"
     height="1"
     rx="0"
     ry="0"
     x="1"
     y="6"
     id="rect1436"
     style="opacity:0.2;fill:url(#linearGradient2424);fill-opacity:1;fill-rule:evenodd;stroke:none;stroke-width:1.00000012;stroke-linecap:butt;stroke-linejoin:miter;marker:none;marker-start:none;marker-mid:none;marker-end:none;stroke-miterlimit:4;stroke-dasharray:none;stroke-dashoffset:0;stroke-opacity:1;visibility:visible;display:inline;overflow:visible" />
  <path
     d="M 1.8999478,2.4999998 C 1.8999478,2.4999998 20.256173,2.5042948 20.256173,2.5042948 C 20.986443,2.5042948 21.499219,3.1349549 21.499219,3.8328263 C 21.499219,3.8328263 21.499219,5.4999999 21.499219,5.4999999 C 21.499219,5.4999999 0.49999995,5.4999999 0.49999995,5.4999999 C 0.49999995,5.4999999 0.49999995,3.8328263 0.49999995,3.8328263 C 0.49999995,3.0889863 1.0640786,2.4999998 1.8999478,2.4999998 z"
     id="rect2311"
     style="fill:url(#linearGradient2419);fill-opacity:1;fill-rule:evenodd;stroke:url(#linearGradient2421);stroke-width:0.99999988;stroke-linecap:butt;stroke-linejoin:miter;marker:none;marker-start:none;marker-mid:none;marker-end:none;stroke-miterlimit:4;stroke-dasharray:none;stroke-dashoffset:0;stroke-opacity:1;visibility:visible;display:inline;overflow:visible" />
  <path
     d="M 2.4999608,7.4999605 C 2.9200887,7.4999605 3.4867467,7.4999605 3.906875,7.4999605 C 3.9805744,7.5323203 4.3966445,7.926539 4.5000349,8.1817996 C 4.5000349,8.9630657 4.5000393,9.7187724 4.5000393,10.500039 C 3.8889018,10.500039 3.1110984,10.500039 2.4999608,10.500039 C 2.4999608,9.5000129 2.4999608,8.4999865 2.4999608,7.4999605 z"
     id="path4160"
     style="fill:#f2f2f2;fill-opacity:1;stroke:#cccccc;stroke-width:0.99992156;stroke-linecap:butt;stroke-linejoin:round;stroke-miterlimit:4;stroke-dasharray:none;stroke-dashoffset:0;stroke-opacity:1;display:inline" />
  <path
     d="M 2.4999608,12.49996 C 2.9200887,12.49996 3.4867467,12.49996 3.906875,12.49996 C 3.9805744,12.53232 4.3966445,12.926538 4.5000349,13.181799 C 4.5000349,13.963065 4.5000393,14.718772 4.5000393,15.500039 C 3.8889018,15.500039 3.1110984,15.500039 2.4999608,15.500039 C 2.4999608,14.500013 2.4999608,13.499986 2.4999608,12.49996 z"
     id="path4156"
     style="fill:#f2f2f2;fill-opacity:1;stroke:#cccccc;stroke-width:0.9999215;stroke-linecap:butt;stroke-linejoin:round;stroke-miterlimit:4;stroke-dasharray:none;stroke-dashoffset:0;stroke-opacity:1;display:inline" />
</svg>

<?xml version="1.0" encoding="UTF-8" standalone="no"?>
<!-- Created with Inkscape (http://www.inkscape.org/) -->
<svg id="svg2639" xmlns="http://www.w3.org/2000/svg" height="22" width="22" version="1.0" xmlns:xlink="http://www.w3.org/1999/xlink">
 <defs id="defs2641">
  <linearGradient id="linearGradient2419" y2="16.323" gradientUnits="userSpaceOnUse" x2="33.579" gradientTransform="matrix(.38025 0 0 .32985 -1.2544 .36644)" y1="5.7086" x1="33.579">
   <stop id="stop2524" style="stop-color:#fdfdf8" offset="0"/>
   <stop id="stop2526" style="stop-color:#d6d3b4" offset="1"/>
  </linearGradient>
  <linearGradient id="linearGradient2421" y2="14" gradientUnits="userSpaceOnUse" x2="16.916" gradientTransform="matrix(.46665 0 0 .50005 -.19997 -1.2507)" y1="7.0006" x1="16.916">
   <stop id="stop2517" style="stop-color:#aeae94" offset="0"/>
   <stop id="stop2519" style="stop-color:#626337" offset="1"/>
  </linearGradient>
  <linearGradient id="linearGradient2424" y2="13.523" gradientUnits="userSpaceOnUse" x2="24.683" gradientTransform="matrix(.43469 0 0 0.234 .57047 3.8374)" y1="9.2417" x1="24.683">
   <stop id="stop3284" offset="0"/>
   <stop id="stop3286" style="stop-opacity:0" offset="1"/>
  </linearGradient>
  <linearGradient id="linearGradient2427" y2="43.844" gradientUnits="userSpaceOnUse" x2="22.763" gradientTransform="matrix(.42181 0 0 .38421 .87611 2.1654)" y1="-4.8771" x1="22.763">
   <stop id="stop2240" style="stop-color:#fff" offset="0"/>
   <stop id="stop2242" style="stop-color:#fff;stop-opacity:0" offset="1"/>
  </linearGradient>
  <linearGradient id="linearGradient2430" y2="24.628" gradientUnits="userSpaceOnUse" x2="20.055" gradientTransform="matrix(.43537 0 0 .48234 .55102 .12101)" y1="15.298" x1="16.626">
   <stop id="stop2687" style="stop-color:#fff" offset="0"/>
   <stop id="stop2689" style="stop-color:#fff;stop-opacity:0" offset="1"/>
  </linearGradient>
  <radialGradient id="radialGradient2433" gradientUnits="userSpaceOnUse" cy="-2.0645" cx="26.617" gradientTransform="matrix(0 -.48959 .65176 0 16.583 25.947)" r="23">
   <stop id="stop2749" style="stop-color:#d78ec1" offset="0"/>
   <stop id="stop2751" style="stop-color:#c564be" offset=".26238"/>
   <stop id="stop2753" style="stop-color:#9d3ea4" offset=".66094"/>
   <stop id="stop2755" style="stop-color:#5e2c73" offset="1"/>
  </radialGradient>
  <linearGradient id="linearGradient2435" y2="2.8765" gradientUnits="userSpaceOnUse" x2="10.014" gradientTransform="matrix(.44679 0 0 .41508 .27713 1.0213)" y1="44.96" x1="10.014">
   <stop id="stop2759" style="stop-color:#650d5c" offset="0"/>
   <stop id="stop2761" style="stop-color:#ad53a5" offset="1"/>
  </linearGradient>
 </defs>
 <rect id="rect1316" style="stroke-linejoin:round;stroke-width:1.0021;fill-rule:evenodd;stroke:url(#linearGradient2435);stroke-linecap:round;fill:url(#radialGradient2433)" rx="1.4533" ry="1.4242" height="16.998" width="20.998" y="2.5008" x=".50109"/>
 <path id="path3278" style="opacity:.2;fill:url(#linearGradient2430);fill-rule:evenodd" d="m1.9524 3c-0.5261 0-0.9524 0.4723-0.9524 1.0551v7.7179c0.0012 0.065 0.0269 0.126 0.0709 0.169 0.0439 0.043 0.1021 0.063 0.1604 0.057l19.592-3.437c0.101-0.0176 0.176-0.113 0.177-0.2261v-4.2808c0-0.5828-0.426-1.0551-0.952-1.0551h-18.096z"/>
 <rect id="rect2232" style="opacity:.4;stroke-linejoin:round;stroke:url(#linearGradient2427);stroke-linecap:round;stroke-width:1.0021;fill:none" rx=".55884" ry=".54499" height="14.998" width="18.998" y="3.5011" x="1.5011"/>
 <rect id="rect1436" style="opacity:.2;fill-rule:evenodd;fill:url(#linearGradient2424)" rx="0" ry="0" height="1" width="20" y="6" x="1"/>
 <path id="rect2311" style="fill-rule:evenodd;stroke:url(#linearGradient2421);fill:url(#linearGradient2419)" d="m1.8999 2.5s18.356 0.0043 18.356 0.0043c0.73 0 1.243 0.6307 1.243 1.3285v1.6672h-20.999v-1.6672c0-0.7438 0.5641-1.3328 1.3999-1.3328z"/>
 <path id="path4160" style="stroke-linejoin:round;stroke:#ccc;stroke-width:.99992;fill:#f2f2f2" d="m2.5 7.5h1.4069c0.0737 0.0323 0.4897 0.4265 0.5931 0.6818v2.3182h-2v-3z"/>
 <path id="path4156" style="stroke-linejoin:round;stroke:#ccc;stroke-width:.99992;fill:#f2f2f2" d="m2.5 12.5h1.4069c0.0737 0.032 0.4897 0.427 0.5931 0.682v2.318h-2v-3z"/>
</svg>
